src/images/icons/icon-twitter.svg

<svg width="12px" height="11px" viewBox="0 0 12 11" version="1.1" xmlns="http://www.w3.org/2000/svg" xmlns:xlink="http://www.w3.org/1999/xlink" xmlns:sketch="http://www.bohemiancoding.com/sketch/ns">
    <title>icon-twitter</title>
    <path d="M11.724,1.935 C11.307,2.12 10.859,2.245 10.389,2.301 C10.869,2.013 11.238,1.558 11.411,1.015 C10.963,1.281 10.465,1.475 9.935,1.579 C9.511,1.127 8.906,0.845 8.237,0.845 C6.953,0.845 5.912,1.886 5.912,3.17 C5.912,3.353 5.932,3.53 5.972,3.7 C4.039,3.603 2.326,2.678 1.178,1.27 C0.978,1.614 0.864,2.013 0.864,2.439 C0.864,3.246 1.274,3.958 1.898,4.375 C1.517,4.363 1.158,4.258 0.845,4.084 L0.845,4.113 C0.845,5.24 1.647,6.18 2.71,6.394 C2.515,6.447 2.309,6.476 2.097,6.476 C1.948,6.476 1.802,6.461 1.66,6.433 C1.956,7.358 2.814,8.03 3.832,8.049 C3.037,8.672 2.034,9.044 0.944,9.044 C0.756,9.044 0.571,9.033 0.389,9.012 C1.418,9.671 2.641,10.056 3.955,10.056 C8.232,10.056 10.571,6.513 10.571,3.44 C10.571,3.339 10.568,3.239 10.565,3.138 C11.018,2.811 11.412,2.401 11.724,1.935"></path>
</svg>

<svg xmlns="http://www.w3.org/2000/svg" viewBox="0 0 12 11">
  <path fill="inherit" d="M11.72 1.94c-.4.18-.86.3-1.33.36.47-.3.84-.74 1-1.28-.44.26-.94.46-1.46.56C9.5 1.13 8.9.84 8.24.84 6.94.84 5.9 1.9 5.9 3.17c0 .18.03.36.07.53-1.93-.1-3.64-1.02-4.8-2.43-.2.34-.3.74-.3 1.17 0 .8.4 1.52 1.03 1.94-.38-.02-.74-.12-1.05-.3v.03c0 1.14.8 2.08 1.86 2.3-.2.05-.4.08-.6.08-.15 0-.3-.02-.44-.05.3.93 1.15 1.6 2.17 1.62-.8.62-1.8 1-2.9 1C.77 9.04.58 9.02.4 9c1.02.67 2.24 1.06 3.55 1.06 4.28 0 6.62-3.55 6.62-6.62v-.3c.45-.33.84-.74 1.15-1.2"/>
</svg>
